X:15
T:Only Our Rivers
M:3/4
K:Em
L:1/8
D2|G2 G2 G2|A4 BA|G2 (D4|D4) B2| c2 c2 c2|B4 dB| (A6|A4) d2|
e4 ef| g4 fe|d2 (B4|B4) G2|A2 A3 B|A2 F2 D2| (E6|E4) d2|
e2 e3 f| g4 fe|d2 B4|B4 G2|e4 ef|g2 a2 g2| (f3 f2) gf|e4 ee|
e2 d2 c2|dB (B4|B4)G2|A2 A3 B|A2 F2 D2|(E6|E4) ||
